X:83
T:Major Sturgeon. VWMLa.083
%%VWML:Anon2-3049-p48-0
F:http://www.vwml.org/record/Anon2/3049/p48
S:Anon. MS, late 18thC, Vaughan Williams Mem. Library
O:England;Yorkshire
Z:vmp/efdss.Simon Wilson. Reviewed PJH 2008.
M:6/8
L:1/8
Q:3/8=120
K:A
cde efe|edc Bcd|ecA G2A|B3 E3|\
cde efe|edc Bcd|ecA F2G|A3 A,3:|
|:ECE ECE|F3 F3|GEG GEG|A3 A3|\
ECE ECE|F3 F3|GEA BAG|A3 A,3:|
T:Priest in his Boots. VWMLa.084
R:Jig
S:Anon. MS, late 18thC, Vaughan Williams Mem. Library
O:England;Yorkshire
Z:vmp/efdss.Simon Wilson. Reviewed PJH 2008.
M:6/8
L:1/8
Q:3/8=120
K:D
c/d/|e2e e2e|e>fd c>BA|d2d fed|cAc e2c/d/|\
eee eee|efd cBA|d2d f2a|gec d2:|
|:g/a/|(a2f)(g2e)|(f2d) cBA|d2d fed|cAc e2f/g/|\
afa geg|fdf cBA|d2d f2a|gec d2:|
